!!!SOCIAL_FUNCTION:	bird dance songs
!!!PDT:	1956
!!!OTL: No_137_Sandhill_Crane_Dance_Song_(a).krn
!!!LANG: Non-Tone
!!!LING_GROUP: Muskogean
!!!REG: Florida
**kern
*staff1
=1-
=
*clefF4
*k[b-e-a-d-g-]
*M3/4
2A-\
8A-\L
8A-\J
=2
4A-\
4E-\
8A-\L
8A-\J
=3||
*M2/4
2A-\
=4
4A-\
4E-\
=5
8A-\L
8G-\J
4E-\
=6
4D-\
8D-/L
8BB-/J
=7
4.AA-/
8r
=8||
*M3/4
2GG-/
8GG-/L
8GG-/J
=9||
*M2/4
2D-\
=10||
*M3/4
4D-\
8D-/L
8BB-/J
8AA-/
8r
=11:|!
*M2/4
4D-\
8D-/L
8BB-/J
=12
8AA-/
8r
8E-\L
8E-\J
=13
[2E-\
=14
2E-\_
=15
4E-\]
4r
*-
